X:29
T:Édesanyám, kedves édesanyám, csak az a kérésem
M:4/4
L:1/4
K:D
A F/G/ A2 | B G/A/ B2 | c<A f<e | d2 d z |
A F/G/ A2 | B G/A/ B2 | c<A f<e | d2 d z
ff e<d | e2 B2 | edBG | B2 A2 |
A F/G/ A/F/G/A/ | B G/A/ B/G/A/B/ | c<A fe | d2 dz |

